!!!COM: Anon.
!!!OTL: Legem Dedit Olim Deus
!!!SCA: Folio 312-312'
!!!YOR: from 'Thirty-Five Conductus for Two and Three Voices', pp.89-92
!!!YOR: edited by Janet Knapp, Collegium Musicum No. 6, Yale University (1965)
!!!YOR: from the School of Notre Dame; circa 1170-1240
!!!YOO: Yale University
!!!YOY: 1965
!! NOTE: The repeats between bars 33 and 40 have been expanded in
!!       this encoding.
**kern	**kern
*M6/8	*M6/8
=1	=1
2.D	4G
.	8A
.	4A
.	8G
=2	=2
4.F	8F
.	8E
.	8D
4F	4.C
8E	.
=3	=3
2.C	4D
.	8E
.	4E
.	8D
=4	=4
4.D	4C
.	8BB
4E	4AA
8r	8r
=5	=5
2.F	4F
.	8G
.	4.A
=6	=6
4.E	4.G
4.D	4.F
=7	=7
2.C	4E
.	8E
.	4F
.	8E
=8	=8
4D	4D
8E	8C
4E	4C
8D	8AA
=9	=9
4.D	4.D
4.r	4.r
=10	=10
8E	8E
8E	8E
8D	8D
4.F	4.C
=11	=11
8E	8BB
8E	8BB
8D	8AA
8C	8C
8C	8C
8BB	8D
=12	=12
4.AA	4.E
4.r	4.r
=13	=13
4.F	8C
.	8D
.	8E
4F	8F
.	8G
8E	8F
=14	=14
4.E	4.E
4F	4C
8E	8C
=15	=15
4D	4D
8E	8E
4C	8F
.	8E
8D	8D
=16	=16
4.AA	4.E
4.r	4.r
=17	=17
[2.C	4G
.	8A
.	4.c
=18	=18
2.C_	16c
.	16B
.	16A
.	16G
.	8F
.	4.E
=19	=19
2.C]	4.F
.	4G
.	8A
=20	=20
2.D	4.G
.	4G
.	8F
=21	=21
4.E	8F
.	4E
4.r	4.r
=22	=22
2.G	4c
.	8c
.	4d
.	8c
=23	=23
4.A	4B
.	8A
4A	4A
8G	8B
=24	=24
4.F	8c
.	8c
.	8B
4.E	4A
.	8G
=25	=25
4.D	4.A
4.r	4.r
=26	=26
4D	8A
.	8A
8E	8G
4F	4.F
8G	.
=27	=27
4F	8E
.	8D
8E	8E
4.D	4.F
=28	=28
4.C	4.G
4.r	4.r
=29	=29
4.D	4.A
4E	4G
8F	8F
=30	=30
4G	4E
8F	8D
4E	4C
8D	8D
=31	=31
4E	4E
8F	8D
4E	4C
8D	8D
=32	=32
4E	4E
8D	8F
4C	4G
8r	8r
=33	=33
4.D	4A
.	8G
4E	8F
.	8E
8F	8D
=34	=34
4.E	4.E
4E	4E
8F	8F
=35	=35
4.D	4A
.	8G
4E	8F
.	8E
8F	8D
=36	=36
4.E	4.E
4E	4E
8F	8F
=37	=37
4.D	4.A
4E	4.G
8F	.
=38	=38
4.E	4.G
4.F	4.F
=39	=39
4.D	4E
.	8D
4E	4E
8D	8F
=40	=40
4.C	4.G
4.r	4.r
=41	=41
4.D	4A
.	8G
4E	8F
.	8E
8F	8D
=42	=42
4.E	4.E
4E	4E
8F	8F
=43	=43
4.D	4A
.	8G
4E	8F
.	8E
8F	8D
=44	=44
4.E	4.E
4E	4E
8F	8F
=45	=45
4.D	4.A
4E	4.G
8F	.
=46	=46
4.E	4.G
4.F	4.F
=47	=47
4C	4E
8D	8D
4.E	4.C
=48	=48
4.D	4.D
4.r	4.r
=49	=49
[2.C	4F
.	8E
.	4F
.	8E
=50	=50
2.C_	8F
.	16F
.	16E
.	8D
.	4.C
=51	=51
2.C]	4.D
.	4.E
=52	=52
4.D	4.D
4.r	4.r
!! New Section
=53	=53
4.A	4.A
4c	4G
8B-	8F
=54	=54
4.A	4.E
4.A	4.D
=55	=55
4G	4F
8B-	8F
4A	4E
8G	8D
=56	=56
4.F	4.C
4.F	4.C
=57	=57
4.A	4F
.	8E
4c	4D
8B-	8C
=58	=58
4.A	4.D
4.D	4.A
=59	=59
4F	4F
8E	8A
4D	4G
8C	8F
=60	=60
4.E	4.E
4G	4C
8r	8r
=61	=61
4.F	4.F
4.E	4.G
=62	=62
4.D	4A
.	8G
4D	4.E
8C	.
=63	=63
4.D	4.D
4.r	4.r
=64	=64
4.F	4.F
4.G	4.E
=65	=65
8A	4F
8A	.
8G	8D
4E	4E
8r	8r
=66	=66
4.D	4F
.	8G
8F	8F
8E	8E
8D	8D
=67	=67
4.C	4.E
4C	4E
8r	8r
=68	=68
4A	4F
8A	8F
4G	4E
8F	8D
=69	=69
4.E	4.C
4D	4D
8r	8r
=70	=70
4G	4E
8G	8F
4F	4E
8E	8C
=71	=71
4.D	4.D
4C	4E
8r	8r
=72	=72
[2.F	4F
.	8E
.	4F
.	8E
=73	=73
2.F]	4F
.	8G
.	8A
.	8A
.	8G
=74	=74
2.G	4.E
.	4.E
=75	=75
4.A	4.D
4.r	4.r
=76	=76
4.A	4.D
4.c	4.C
=77	=77
4.d	8D
.	8D
.	8E
4c	4F
8r	8r
=78	=78
8B-	8A
8A	8B-
8G	8c
4.B-	4.B-
=79	=79
4A	4c
8G	8d
4F	4c
8r	8r
=80	=80
4.A	4.d
4.c	4.c
=81	=81
4.d	8B-
.	8A
.	8G
4.c	4.F
=82	=82
8B-	4G
8A	.
8G	8F
8A	4F
8B-	.
8c	8E
=83	=83
4.A	4.D
4.r	4.r
=84	=84
4.A	4.F
8F	8E
4A	4D
=85	=85
8G	4.C
4F	.
8E	4.F
4D	.
=86	=86
8E	8E
4F	4D
8E	8E
4C	4F
=87	=87
4.D	4.D
4.r	4.r
=88	=88
4.F	4.A
4.G	8G
.	4F
=89	=89
4.G	8E
.	4D
4.G	8C
.	4E
=90	=90
8F	4.F
4E	.
4.F	4.r
=91	=91
4.G	4.D
8G	8E
4A	4C
=92	=92
4.D	4.D
4.r	4.r
=93	=93
4.F	4.A
4D	4F
8F	8A
=94	=94
4.E	4G
.	8F
4E	4E
8r	8r
=95	=95
4.F	4.A
4D	4F
8E	8G
=96	=96
4.C	4E
.	8D
4C	4C
8r	8r
=97	=97
4.F	4.A
4D	4F
8F	8A
=98	=98
4.E	4G
.	8F
4E	4E
8r	8r
=99	=99
4.D	4A
.	8G
4.C	4F
.	8E
=100	=100
4.D	4.D
4.r	4.r
=101	=101
[2.C	8G
.	8A
.	8B-
.	16c
.	16B-
.	16A
.	16G
.	16F
.	16E
=102	=102
2.C]	4.D
.	4.E
=103	=103
4.D	4.D
4.r	4.r
!! New Section
=104	=104
4.F	4.c
4.G	4.d
=105	=105
8G	4c
8G	.
8A	8A
4B-	4F
8r	8r
=106	=106
4A	8A
.	8B-
8G	8c
4.F	4.B-
=107	=107
4E	4A
8D	8G
4.F	4.F
=108	=108
8G	4E
8A	.
8B-	8C
4A	4.D
8G	.
=109	=109
4F	4D
8E	8E
4F	4C
8G	8D
=110	=110
8F	4E
8E	.
8D	8F
4.C	4.E
=111	=111
4.D	4.D
4.r	4.r
=112	=112
4.F	4.F
4.G	4G
.	8F
=113	=113
8G	4E
8G	.
8A	8D
4.B-	4F
.	8r
=114	=114
4A	8A
.	8B-
8G	8c
4.F	4.B-
=115	=115
4E	4c
8D	8d
4F	4c
8r	8r
=116	=116
8G	4d
8A	.
8B-	8c
4A	8B-
.	8A
8G	8G
=117	=117
4F	8F
.	8E
8E	8D
4F	4.C
8G	.
=118	=118
8F	4.F
8E	.
8D	.
4.C	8G
.	8A
.	8B-
=119	=119
4.D	4.A
4.r	4.r
=120	=120
4F	4A
8E	8G
4D	4G
8C	8F
=121	=121
4.D	4E
.	8D
4D	4D
8E	8E
=122	=122
4.F	4.C
4F	4D
8G	8E
=123	=123
8F	4.G
8E	.
8D	.
4F	4F
8r	8r
=124	=124
4.G	4.c
4G	8B-
.	8A
8A	8G
=125	=125
4.F	4.F
4F	4F
8E	8G
=126	=126
4.D	4A
.	8G
4E	4E
8D	8F
=127	=127
4.C	4.G
4.r	4.r
=128	=128
4F	4.F
8E	.
4D	4G
8C	8F
=129	=129
4C	4E
8D	8D
4D	4D
8E	8E
=130	=130
4.F	4.C
4F	4D
8G	8E
=131	=131
8F	4G
8E	.
8D	8F
4E	4E
8r	8r
=132	=132
4.C	4.G
4.D	4A
.	8B
=133	=133
4D	4c
8E	8B
4.F	4.A
=134	=134
4E	4G
8D	8A
4.C	8G
.	8F
.	8E
=135	=135
4.D	4.D
4.r	4.r
=136	=136
4A	4F
8A	8F
4F	4A
8E	8A
=137	=137
4F	8F
.	8E
8G	8D
4E	4C
8D	8D
=138	=138
4E	4E
8F	8D
4E	4C
8D	8D
=139	=139
4C	4E
8D	8F
4D	4D
8r	8r
=140	=140
4F	4A
8F	8A
4A	4F
8A	8E
=141	=141
8F	4F
8E	.
8D	8G
4C	4E
8D	8D
=142	=142
4E	4E
8D	8F
4C	4E
8D	8D
=143	=143
4E	4C
8F	8D
4D	4D
8r	8r
=144	=144
4F	4A
8E	8G
4F	4A
8D	8F
=145	=145
4E	4G
8E	8G
4C	4E
8BB-	8D
=146	=146
4F	4A
8E	8G
4F	4A
8D	8F
=147	=147
8E	8G
8E	8G
8D	8F
4C	4E
8r	8r
=148	=148
4F	4A
8E	8G
4F	4A
8D	8F
=149	=149
4E	4G
8E	8G
4C	4E
8BB-	8D
=150	=150
4F	4A
8E	8G
4F	4A
8D	8F
=151	=151
8E	8G
8D	8F
8C	8E
4D	4D
8r	8r
=152	=152
[2.C	4.F
.	4G
.	8A
=153	=153
2.C_	4.c
.	16c
.	16B
.	16A
.	16G
.	16F
.	16E
=154	=154
2.C_	4.D
.	4.D
=155	=155
4.C]	4.E
4D;	4D;
8r	8r
==	==
*-	*-
!!!ENC: David Huron
!!!YEC: Copyright 1987, David Huron
!!!EEV: 1.0
